X:1
T:Title
%%score { 1 | 2 }
L:1/8
M:6/8
K:F
V:1 treble nm="Grand Piano"
V:2 bass 
V:1
 z3 z2[Q:1/4=92] C | AGF AGF | E2 F G2 C | [EB][FA][EG] [EB][FA][EG] | F2 [EG] A2 C | AGF AGF | %6
 E2 F G2 C | [CEB][CFA][CEG] [CFA]2 [CFA] |[M:5/8] [CFA]2 [B,EG] F2 |[M:1/8] A |[M:3/4] c2 cc dc | %11
 [Ac]2 [GB] [GB]2 [EG] | [GB]2 [GB][GB] [Ac][GB] | [GB]2 A A2 C | AG FA GF | E2 F G2 C | %16
 [CEB][CFA] [CEG] [CFA]2 [CFA] |[M:13/8] [CFA]2 [B,EG] .[A,F]3 z z z z z z2 |] %18
V:2
 z3 z2 [F,A,] | [F,C][F,B,C][F,A,C] [F,C][F,B,C][F,A,C] | [C,G,C]2 [C,A,C] [C,B,C]2 C, | %3
 [C,C][C,C][C,C] [C,C][C,C][C,C] | [F,A,]2 [C,C] [F,CF]2 [F,A,] | %5
 [F,C][F,B,C][F,A,C] [F,C][F,B,C][F,A,C] | [C,G,C]2 [C,A,C] [C,B,C]2 C, | C,C,C, F,2 F, | %8
[M:5/8] C,2 C, [F,A,]2 |[M:1/8] [F,CF] |[M:3/4] [F,A,F]2 [F,A,F][F,A,F] [F,B,F][F,A,F] | %11
 [C,C]2 [C,C] [C,C]2 [C,C] | [C,C]2 [C,C][C,C] [C,C][C,C] | [F,C]2 [F,CF] [F,CF]2 [F,A,] | %14
 [F,C][F,B,C] [F,A,C][F,C] [F,B,C][F,A,C] | [C,G,C]2 [C,A,C] [C,B,C]2 C, | C,C, C, F,2 F, | %17
[M:13/8] C,2 C, .F,3 z z z z z z2 |] %18

